!!!COM: Anon.
!!!OTL: Oki no Taisen
!!!OTC: Japanese Popular Music: A Collection of The Popular Music of Japan Rendered in to the Staff notation.
!!!CNT: Nippon, Japanese
!!!TXO: Nippon, Japan
!!!OCY: Nippon, Japan
!!!ODT: <1892///
!!!PSR: S. Miki & Co.
!!!PSP: Osaka, Nippon
!!!PDT: 1892///
!!!PPE: Y Nagai & K. Kobatake
!!!PED: Revised Second Edition
!!!PPG: page 77
!! Moderato
**kern	**silbe
*ICstr	*Lnippon
*ICvox	*
*Ikoto	*
*Ivox	*
*clefG2	*
*k[]	*
*M4/4	*
=1-	=1-
8g	.
8e-	.
8d	.
8c	.
8d	.
8f	.
8g	.
8g	.
=2	=2
8G	.
8g	.
4g	.
8g	.
8f	.
4G	.
=3	=3
8r	.
8a	.
4a	.
8a	.
8f	.
4g	.
=4	=4
4cc	.
4.a	.
16cc	.
16cc	.
4dd	.
=5	=5
8r	.
8ee	.
8dd	.
8cc	.
8a	.
8g	.
8f	.
8g	.
=6	=6
8a	.
8a	.
8g	.
8a	.
8e	.
8d	.
4c	.
=7	=7
4r	.
4c	.
8r	.
8c	.
8.d	.
16c	.
=8	=8
8d	.
8f	.
8g	.
8d	.
8r	.
8d	.
4G	.
=9	=9
4cc	.
[4a	.
8a]	.
8f	.
4g	.
=10	=10
8d	.
16cc	.
16cc	.
4dd	.
8r	.
8cc	.
[4a	.
=11	=11
8a]	.
8f	.
4g	.
4cc	.
8a	.
16a	.
16a	.
=12	=12
8g	.
8f	.
8g	.
16a	.
16a	.
8g	.
8e	.
[4d	.
=13	=13
4d]	.
4A	.
4c	.
8.d	.
16c	.
=14	=14
8d	.
8d	.
8f	.
8g	.
8a	.
8B-	.
4A	.
=15	=15
4r	.
4a	.
4cc	.
8a	.
16a	.
16a	.
=16	=16
8g	.
8f	.
8g	.
16a	.
16a	.
8g	.
8e	.
8d	.
8c	.
=17	=17
8d	.
8f	.
8g	.
8g	.
8G	.
8g	.
4g	.
=18	=18
8g	.
8f	.
8g	.
8f	.
4G	.
8.g	.
16f	.
=19	=19
8g	.
8a	.
8cc	.
8a	.
8cc	.
8dd	.
8cc	.
8a	.
=20	=20
4g	.
8r	.
8a	.
4g	.
4d	.
=21	=21
2g;	.
2r	.
==	==
*-	*-
!!!ENC: David Huron
!!!RDT: 2000/1/30
!!!EEV: Release 1.0
!!!ELF: 21/28
!!!YER: 2000/2/1
!!!YEM: Copyright David Huron, 2000
!!!YEN: United States of America
